X:1
T:Non c'è piu fede
T:Non c'è piu fede
T:Barbara Strozzi
T:Source : Arie---Venetia---F.Magni (Gardano)---1664. Editor : André Vierendeels (17/03/15).
T:Notes : Original clefs : C1, F4 Editorial accidentals above the staff Figures in BC are notated in original print Dotted brackets indicate black notes m16 in S : "la" no dotted in original print
T:Adagio
C:Barbara Strozzi
%%score 1 2
L:1/8
Q:1/4=144
M:3/2
K:Eb
V:1 treble nm="Soprano" snm="S"
V:2 bass nm="BC" snm="BC"
V:1
S c2 c2 G2 A2 A2 z2 | f2 f2 c2 _d2 d2 =E2 | F2 z2 GA B2 A2 G2 | A2 G4 F2 =A2 B2 | B4 B2 c2 c2 _de | %5
w: Non c'è piu fe- de,|non c'è piu fe- de, no|no no _ c'è piu _|fe _ de, co- me|rea di tra- di men- *|
 _d6 d2 c2 c2 | z2 c2 G2 =A4 z2 | z2 f2 d2 =B2 d2 e2 | f2 e2 =B2 c6 | _d2 c4 d2 c4 | %10
w: * * * to,|fu d'a- mor,|fu d'a- mor pos- *|t'al tor- men- *||
 c4 _d2 c2 =e3 f | f2 f2 c2 _d2 d4 | _d8 d2 =A2 | B2 c2 _d2 d2 c4 | B2 d3 =e e6 | z2 c2 G2 A6- | %16
w: * to _ e'un ri-|val, e'un ri- val mor-||* te gli di- e-|de, e'un ri- val|mor- * *|
 A>B c3 _d _G>A B3 c | F>G A3 B =E2 F2 c2 | BA G4 F6- | F6 c2 c2 G2 | A2 A2 z2 f2 f2 c2 | %21
w: |* * * * te gli di-|* e- * de,|_ non c'è piu|fe- de, non c'è piu|
 _d2 d2 =E2 F2 z2 GA | B2 z2 c2 _d2 z2 =ef- | f2 z2 GA B2 A2 G2 | A2 G4 F2 z2 c2 | %25
w: fe- de, no no no _|_ no no no _|_ non _ c'è piu _|fe- * de, non|
 _d2 G2 AB A2 G4 | F12!fine! |1[M:3/4] F6 :|2 F4 c2 |:[M:3/2] c2 c2 c2 _d2 d2 =e2 | =e2 e2 f2 f6- | %31
w: c'è piu _ _ fe- *|de,|de,|de, ve-|sti- te- vi'a bru- no pen-|sie- ri do- len-|
 f3 _d ef ed ec de | _d2 B2 f2 _g2 f3 e | _d2 cd ef d2 c4 | B4 B2 B2 G3 F | =E2 E2 c2 c2 =A3 G | %36
w: |* ti, pen- sie- * *|* ri _ do- * len- *|ti, di pian- * *|* ti, di pian- * *|
 ^F2 F2 G2 G2 G2 d2 | e2 e2 =A2 ^F2 G2 A2 | G4 ^F2 G4 g2 | e2 d3 c =B2 B2 e2 | %40
w: * ti'e la- men- ti è'il|tem- po, e'il tem- p'op- por-|tu- no, _ di|pian- * * * ti, di|
 _d2 c3 =B c2 c2 =d2 | =B2 B2 d2 f2 f2 g2 | =B2 c2 _d2 c4 B2 | c12- | c6 z6 | z12 |[M:3/4] z6 | %47
w: pian- * * * ti'e la-|men- ti, e'l tem- po, è'il|tem- p'op- por- tu- *|no,|_|||
[M:3/2] z2 z2 g2 =e2 e2 e2 | f2 f2 f2 d2 d2 d2 | e2 e2 e2 c2 c2 c2 | _d2 d2 d2 =B2 B2 B2 | %51
w: di do- glie cias-|cu- no, di pe- n'e tor-|men- ti, di do- glie cias-|cu- no di pe- n'e tor-|
 c2 c2 c2 A2 Bc _dc | c2 B4 A4 e2 | de fd ef gf ge fg | f2 e2 d2 e2 d4 | c4 c2 =A2 A2 A2 | %56
w: men- ti deh' fac- cia _ si _|he- re- de, deh'|fac- * * * * * * * * * * *|cia si he- re- *|de, di do- glie cias-|
 B2 B2 B2 G2 G2 G2 | A2 A2 f2 =ef ge fg | fe fc _de de fd ef | GF GE FG AB cA Bc | %60
w: cu- no di pen- s'e tor-|men- ti, deh' fac- * * * * *|||
 _d2 B2 c2 BA G4 | F12 | c2 c2 G2 A2 A2 z2!D.S.! :| %63
w: cia si he- re- * *|de,|non c'è piu fe- de|
V:2
 F,,2 F,2 =E,2 F,2 F,2 C,2 |"^b" _D,4 =A,,2 B,,4 C,2 | _D,2 z2 C,2 B,,6 | C,6 F,6 | D,6 C,6 | %5
 B,,2 F,2 F,2 _G,2 E,2 E,2 | =E,6 F,2 ^F,2 F,2 | G,2 A,4 G,6 | F,2 G,4 A,2 E,2 F,2 | %9
 G,6 A,2 E,2 F,2 | G,6 C,6 | =A,,6 z2 B,2 F,2 | _G,2 G,2 _D,2 E,4 F,2 | _G,2 E,4 F,4 F,,2 | %14
 B,,2 =B,,4 C,4 D,2 | =E,6 z2 F,2 C,2 | _D,2 A,,4 B,,2 C,4 | _D,2 B,,4 C,2 D,2 A,,2 | %18
 B,,2 C,4 F,,2 F,2 C,2 | _D,2 D,2 B,,2 C,6 | F,2 F,2 C,2 _D,4 =A,,2 | B,,4 C,2 _D,2 z2 C,2 | %22
 B,2 z2 A,2 _G,2 z2 =G,2 | F,2 z2 C,2 _D,2 C,2 B,,2 | C,6 F,,4 F,2 |"^b" B,,6 C,6 | %26
 F,2 F,2 C,2 _D,2 D,2 B,,2 |1[M:3/4] A,,6 :|2 F,,6 |:[M:3/2] F,2 _G,2 A,2 B,4 A,2 | %30
 G,6 F,2 F,2 E,2 | _D,6 C,6 | B,,6 E,2 F,4 | _G,2 E,4 F,4 F,,2 | B,,4 C,2 _D,2 B,,2 =B,,2 | %35
 C,4 D,2 E,2 C,2 ^C,2 |"^#" D,4 C,2 =B,,6 | C,6 D,2 B,,2 C,2 | D,6 G,,6 | %39
 C,2 B,,3 A,, G,,2 G,2 C2 | B,2 A,3 G, A,2 G,2 F,2 | G,6 A,2 G,2 F,2 | G,2 A,2 F,2 G,6 | %43
 C,4 C2 B,2 B,2 B,2 | A,2 G,2 F,2 G,2 G,,4 | C,4 C2 =A,2 G,2 A,2 |[M:3/4] B,2 B,2 B,2 | %47
[M:3/2] G,2 F,2 G,2 C2 B,2 C2 | =A,2 G,2 A,2 C2 A,2 B,2 | G,2 F,2 G,2 A,2 G,2 A,2 | %50
 F,2 E,2 F,2 G,2 F,2 G,2 | =E,2 D,2 E,2 F,2 _D,4 | E,6 A,4 F,2 |"^-natural" G,4 F,2 E,6 | %54
"^-natural""^-natural" F,2 G,2 A,2 F,2 G,4 | C,6 z2 z2 F,2 | D,2 C,2 D,2 E,2 D,2 =E,2 | F,6 C,6 | %58
 =A,,6 B,,6 | C,6 F,,4 F,2 | B,,6 C,6 | F,2 F,2 C,2 _D,2 D,2 B,,2 | C,6 F,,4 C,2 :| %63

